!!!!SEGMENT: pl-kk--kk-i-70--002-003_anonim--missa-6ta-sanctus.krn
!!!cenid: 17xx:2299
!!!COM: Anonim
!!!COM-rismid: pe30004985
!!!CDT:
!!!CNT:
!!!OPR: Missa 6ta
!!!OTL: Sanctus
!!!OMV: 003
!!!PDT:
!!!AGN: Sacred; Mass
!!!SMS-siglum: PL-Kk
!!!SMS-shelfmark: Kk.I.70
!!!SMS-shelfwork: 002-003 M
!!!SMS-variant: Baſso PL-Kk KK.I.69:0019
!!!SMS-altvar: Baſso PL-Kk KK.I.69:0024
!!!NIFC-rismid: 1001154792
!!!URL-scan: http://repozytorium.nifc.pl/skany/pl-kk-nut--i-70
!!!ONB-nifc: UWAGA: w zbiorze Msza 5ta i 6ta. Części Mszy: 1. Kyrie, 2. Et in terra, 3. Sanctus, 4. Agnus Dei
!!!AIN: 1 alto 1 empty 1 tenor 1 vox
!!!key:
**kern	**text	**dynam	**kern	**text	**dynam	**kern	**text	**kern	**text	**dynam
*part4	*part4	*part4	*part3	*part3	*part3	*part2	*part2	*part1	*part1	*part1
*staff4	*staff4	*	*staff3	*staff3	*	*staff2	*staff2	*staff1	*staff1	*
*Iempty	*	*	*Itenor	*	*	*Ialto	*	*Ivox	*	*
*I"Baſso	*	*	*I"Tenore	*	*	*I"Alto.	*	*I"Canto	*	*
*I'B	*	*	*I'T	*	*	*I'A	*	*I'S	*	*
*clefF4	*	*	*clefC4	*	*	*clefC3	*	*clefC1	*	*
*k[]	*	*	*k[]	*	*	*k[]	*	*k[]	*	*
*a:	*	*	*a:	*	*	*a:	*	*a:	*	*
*M3/4	*	*	*M3/4	*	*	*M3/4	*	*M3/4	*	*
*2\right	*	*	*2\right	*	*	*2\right	*	*2\right	*	*
=1	=1	=1	=1	=1	=1	=1	=1	=1	=1	=1
!LO:TX:t=P:problem=mixed beam	!	!	!	!	!	!	!	!LO:TX:a:t=Lente	!	!
!LO:TX:a:t=Lente	!	!	!LO:TX:a:t=Lente	!	!	!LO:TX:a:t=Lente	!	!	!	!
8A\L	San-	.	2.c\	San-	.	4e\	San-	2.a\	San-	.
8AA/J	.	.	.	.	.	.	.	.	.	.
8C/L	.	.	.	.	.	8e\L	.	.	.	.
8E/J	.	.	.	.	.	8c\J	.	.	.	.
8A\L	.	.	.	.	.	8e\L	.	.	.	.
8c\J	.	.	.	.	.	8a\J	.	.	.	.
=2	=2	=2	=2	=2	=2	=2	=2	=2	=2	=2
4A\	.	.	4c\	.	.	4e\	.	4a\	.	.
4E\	-ctus	.	8B\	-ctus	.	4e\	-ctus	8g#X\	-ctus	.
.	.	.	8d\L	San-	.	.	.	8b\L	San-	.
4r	.	.	8c\J	.	.	4r	.	8a\J	.	.
.	.	.	8B\	-ctus	.	.	.	8g#X\	-ctus	.
=3	=3	=3	=3	=3	=3	=3	=3	=3	=3	=3
!	!	!	!	!	!	!	!	!LO:SIC:v:s=8g#\L	!	!
8B\L	San-	.	8d\L	San-	.	2.e\	San-	8g\L	San-	.
8G#X\	.	.	8B\J	.	.	.	.	8b\J	.	.
8E\	.	.	8G#X\L	.	.	.	.	8dd\L	.	.
8G#\	.	.	8B\J	.	.	.	.	8b\J	.	.
8B\	.	.	8d\L	.	.	.	.	8g#X\L	.	.
8G#\J	.	.	8B\J	.	.	.	.	8b\J	.	.
=4	=4	=4	=4	=4	=4	=4	=4	=4	=4	=4
!LO:SIC:v:s=4G#	!	!	!	!	!	!	!	!	!	!
4G\	.	.	4d\	.	.	4e\	.	4b\	.	.
4A\	-ctus	.	8c\	-ctus	.	8e\	-ctus	8a\	-ctus	.
*	*	*	*	*	*	*	*	*	*ij	*
.	.	.	8c\L	san-	.	8r	.	8a\L	San-	.
4r	.	.	8B\J	.	.	4r	.	8g#X\J	.	.
.	.	.	8c\	-ctus	.	.	.	8a\	-ctus	.
*	*	*	*	*	*	*	*	*	*Xij	*
=5	=5	=5	=5	=5	=5	=5	=5	=5	=5	=5
4A\	San-	.	8c\L	San-	.	8e\L	San-	4a\	San-	.
.	.	.	16d\L	.	.	16f\L	.	.	.	.
.	.	.	16c\JJ	.	.	16e\JJ	.	.	.	.
4G#X\	.	.	8B\L	.	.	8d\L	.	2ee\	.	.
.	.	.	16c\L	.	.	16e\L	.	.	.	.
.	.	.	16B\JJ	.	.	16d\JJ	.	.	.	.
4A\	.	.	4A\	.	.	8c\L	.	.	.	.
.	.	.	.	.	.	16d\L	.	.	.	.
.	.	.	.	.	.	16c\JJ	.	.	.	.
=6	=6	=6	=6	=6	=6	=6	=6	=6	=6	=6
!	!	!	!LO:LB:g=original	!	!	!	!	!LO:LB:g=original	!	!
4E\	.	.	4A\	.	.	4c/	.	4ee\	.	.
4E\	-ctus	.	4G#X\	-ctus	.	4B/	-ctus	4ee\	-ctus	.
4r	.	.	4r	.	.	4r	.	4r	.	.
=7	=7	=7	=7	=7	=7	=7	=7	=7	=7	=7
!LO:LB:g=original	!	!	!	!	!	!LO:LB:g=original	!	!	!	!
4.G#X\	Do-	.	4.d\	Do-	.	4.f\	Do-	4.b\	Do-	.
8G#\	-mi-	.	8d\	-mi-	.	8f\	-mi-	8b\	-mi-	.
4A\	-nus	.	4c\	-nus	.	4e\	-nus	4a\	-nus	.
=8	=8	=8	=8	=8	=8	=8	=8	=8	=8	=8
!LO:SIC:v:s=4G#	!	!	!	!	!	!	!	!	!	!
4G\	De-	.	4d\	De-	.	4f\	De-	4b\	De-	.
4E\	.	.	4B\	.	.	4d\	.	4g#X\	.	.
4A\	-us	.	4c\	-us	.	4e\	-us	4a\	-us	.
=9	=9	=9	=9	=9	=9	=9	=9	=9	=9	=9
4D\	Sa-	.	8d\L	Sa-	.	8f\L	Sa-	4b\	Sa-	.
.	.	.	8B\J	.	.	8d\J	.	.	.	.
4E\	.	.	4c\	.	.	4e\	.	4a\	.	.
!	!	!	!	!	!	!	!	!LO:SIC:v:s=4g#	!	!
4E\	-ba-	.	4B\	-ba-	.	4e\	-ba-	4g\	-ba-	.
=10	=10	=10	=10	=10	=10	=10	=10	=10	=10	=10
2AA/	-oth	.	2c\	-oth	.	2e\	-oth	2a\	-oth	.
4r;	.	.	4r;	.	.	4r;	.	4r;	.	.
=11||	=11||	=11||	=11||	=11||	=11||	=11||	=11||	=11||	=11||	=11||
!LO:TX:a:t=allô	!	!	!LO:TX:a:t=allo	!	!	!LO:TX:a:t=allo	!	!LO:TX:a:t=allo	!	!
4C\	Ple-	.	4c\	Ple-	.	4e\	Ple-	4gn\	Ple-	.
4E\	-ni	.	4c\	-ni	.	4e\	-ni	4g\	-ni	.
4G\	sunt	.	4d\	sunt	.	4f\	sunt	4b\	sunt	.
=12	=12	=12	=12	=12	=12	=12	=12	=12	=12	=12
8c\L	cae-	.	8e\L	cae-	.	8g\L	cae-	4g\	cae-	.
8G\J	.	.	8c\J	.	.	8e\J	.	.	.	.
8G\L	-li	.	8c\L	-li	.	8e\L	-li	4g\	-li	.
8E\J	.	.	8e\J	.	.	8g\J	.	.	.	.
8E\L	et	.	4c\	et	.	8g\L	et	4g\	et	.
8C\J	.	.	.	.	.	8e\J	.	.	.	.
=13	=13	=13	=13	=13	=13	=13	=13	=13	=13	=13
!	!	!	!LO:LB:g=original	!	!	!	!	!LO:LB:g=original	!	!
4G\	ter-	.	4c\	ter-	.	4e\	ter-	4g\	ter-	.
4GG/	-ra	.	4B\	-ra	.	4d\	-ra	4g\	-ra	.
4r	.	.	4r	.	.	4r	.	4r	.	.
=14	=14	=14	=14	=14	=14	=14	=14	=14	=14	=14
!LO:LB:g=original	!	!	!	!	!	!LO:LB:g=original	!	!	!	!
8G\L	glo-	.	2.d\	glo-	.	2.f\	glo-	2.b\	glo-	.
8B\	.	.	.	.	.	.	.	.	.	.
8d\	.	.	.	.	.	.	.	.	.	.
8B\	.	.	.	.	.	.	.	.	.	.
8G\	.	.	.	.	.	.	.	.	.	.
8F\J	.	.	.	.	.	.	.	.	.	.
=15	=15	=15	=15	=15	=15	=15	=15	=15	=15	=15
8E\L	.	.	8c\L	.	.	8g\L	.	8cc\L	.	.
8D\J	.	.	8d\J	.	.	8f\J	.	8b\J	.	.
8C\L	-ri-	.	8e\L	.	.	8e\L	.	8g\L	.	.
8D\J	.	.	8d\J	.	.	8f\J	.	8b\J	.	.
8E\L	-a	.	8c\	-ri-	.	8g\	ri-	8cc\	-ri-	.
8F\J	.	.	8d\	-a	.	8a\	-a	8b\	-a	.
=16	=16	=16	=16	=16	=16	=16	=16	=16	=16	=16
4G\	tu-	.	4e\	tu-	.	4g\	tu-	4cc\	tu-	.
4GG/	-a	.	4d\	-a	.	4g\	-a	4b\	-a	.
4r	.	.	4r	.	.	4r	.	4r	.	.
=17	=17	=17	=17	=17	=17	=17	=17	=17	=17	=17
8G#X\L	glo-	.	2.d\	glo-	.	2.f\	glo-	2.b\	glo-	.
8B\	.	.	.	.	.	.	.	.	.	.
8E\	.	.	.	.	.	.	.	.	.	.
8G#\	.	.	.	.	.	.	.	.	.	.
8B\	.	.	.	.	.	.	.	.	.	.
8G#\J	.	.	.	.	.	.	.	.	.	.
=18	=18	=18	=18	=18	=18	=18	=18	=18	=18	=18
4A\	.	.	4c\	.	.	4e\	.	4a\	.	.
4E\	-ri-	.	4B\	-ri-	.	4d\	-ri-	4g#X\	-ri-	.
4C\	-a	.	4c\	-a	.	4e\	-a	4a\	-a	.
=19	=19	=19	=19	=19	=19	=19	=19	=19	=19	=19
4D\	tu-	.	4d\	tu-	.	4f\	tu-	4b\	tu-	.
2E\	.	.	4c\	.	.	2e\	.	4a\	.	.
!	!	!	!	!	!	!	!	!LO:SIC:v:s=4g#	!	!
.	.	.	4B\	.	.	.	.	4g\	.	.
=20	=20	=20	=20	=20	=20	=20	=20	=20	=20	=20
2AA/	-a.	.	2c\	a	.	2e\	-a	2.a\	-a	.
4r	.	.	4r	.	.	4r	.	.	.	.
=21||	=21||	=21||	=21||	=21||	=21||	=21||	=21||	=21||	=21||	=21||
*M2/2	*	*	*M2/2	*	*	*M2/2	*	*M2/2	*	*
*met(c|)	*	*	*met(c|)	*	*	*met(c|)	*	*met(c|)	*	*
!LO:TX:a:t=modto	!	!	!LO:LB:g=original	!	!	!LO:LB:g=original	!	!LO:TX:a:t=modto	!	!
!LO:LB:g=original	!	!	!	!	!	!	!	!LO:LB:g=original	!	!
4AA/	O-	.	4e\	O-	.	4c\	O-	2ee\	O-	.
4BB/	.	.	4d\	.	.	4d\	.	.	.	.
8C/L	.	.	8c\L	.	.	8e\L	.	4cc\	.	.
8BB/	.	.	8d\J	.	.	8d\	.	.	.	.
8C/	.	.	4c\	.	.	8e\	.	4a\	.	.
8AA/J	.	.	.	.	.	8c\J	.	.	.	.
=22	=22	=22	=22	=22	=22	=22	=22	=22	=22	=22
4E\	san-	.	4c\	-san-	.	4e\	-san-	4a\	-san-	.
4E\	-na.	.	4B\	-na	.	4e\	-na	4g#X\	-na	.
4r	.	.	4r	.	.	4r	.	4r	.	.
4E\	O-	.	4B\	o-	.	4g#X\	o-	4ee\	O-	.
=23	=23	=23	=23	=23	=23	=23	=23	=23	=23	=23
!	!	!	!	!	!	!LO:SIC:v:s=4g#	!	!	!	!
4.E\	-san-	.	4B\	-san-	.	4g\	-san-	4dd\	-san-	.
.	.	.	4A\	-na	.	4f#X\	-na	4dd\	-na	.
8F#X\	-na	.	.	.	.	.	.	.	.	.
4G#X\	in	.	4B\	in	.	4e\	in	4dd\	in	.
!	!	!	!	!	!	!LO:SIC:v:s=4g#	!	!	!	!
4E\	ex-	.	4B\	ex-	.	4g\	ex-	4dd\	ex-	.
=24	=24	=24	=24	=24	=24	=24	=24	=24	=24	=24
4A\	-cel-	.	4A\	-cel-	.	4e\	-cel-	4cc\	-cel-	.
4AA/	-sis	.	4A\	-sis	.	4e\	-sis	4cc\	-sis	.
4r	.	.	4r	.	.	4r	.	4r	.	.
!	!	!LO:DY:a:t=f.	!	!	!	!	!	!	!	!
4A\	O-	f	4c\	o-	.	4e\	O-	4a\	o-	.
=25	=25	=25	=25	=25	=25	=25	=25	=25	=25	=25
!	!	!LO:DY:a:t=p&colon;	!	!	!LO:DY:a	!	!	!	!	!LO:DY:a
4G#X\	-san-	p	4d\	-san-	p	4fn\	-san-	4b\	-san-	p
!	!	!LO:DY:a	!	!	!LO:DY:a	!	!	!	!	!LO:DY:a
4A\	.	f	4c\	.	f	4e\	.	4a\	.	f
!	!	!LO:DY:a:t=p&colon;	!	!	!LO:DY:a	!	!	!	!	!LO:DY:a
4G#\	.	p	4d\	.	p	4f\	.	4b\	.	p
!	!	!LO:DY:a:t=f.	!	!	!LO:DY:a	!	!	!	!	!LO:DY:a
4A\	.	f	4c\	.	f	4e\	.	4a\	.	f
=26	=26	=26	=26	=26	=26	=26	=26	=26	=26	=26
!	!	!	!LO:LB:g=original	!	!	!LO:LB:g=original	!	!LO:LB:g=original	!	!
2E\	-na	.	2B\	-na	.	2e\	-na	2g#X/	-na	.
4r	.	.	4r	.	.	4r	.	4r	.	.
4E\	O-	.	4B\	o-	.	4e\	O-	4g#/	o-	.
=27	=27	=27	=27	=27	=27	=27	=27	=27	=27	=27
4G#X\	-san-	.	4B\	-san-	.	4e\	-san-	4b\	-san-	.
4B\	-na	.	4d\	-na	.	4e\	-na	4g#X\	-na	.
4E\	in	.	4e\	in	.	4g#X\	in	4b\	in	.
4G#\	ex-	.	4d\	ex-	.	4e\	ex-	4b\	ex-	.
=28	=28	=28	=28	=28	=28	=28	=28	=28	=28	=28
4A\	-cel-	.	1c	-cel-	.	1e	-cel-	1a	-cel-	.
4E\	.	.	.	.	.	.	.	.	.	.
4C/	.	.	.	.	.	.	.	.	.	.
4AA/	.	.	.	.	.	.	.	.	.	.
=29	=29	=29	=29	=29	=29	=29	=29	=29	=29	=29
4D/	.	.	4B\	.	.	2fn\	.	4f/	.	.
4BB/	.	.	4d\	.	.	.	.	4b/	.	.
2E\	.	.	4c\	.	.	2e\	.	4a/	.	.
.	.	.	4B\	.	.	.	.	4g#X/	.	.
=30	=30	=30	=30	=30	=30	=30	=30	=30	=30	=30
2AA/	-sis	.	1c	-sis	.	1e	-sis	1a	-sis	.
2r	.	.	.	.	.	.	.	.	.	.
=31||	=31||	=31||	=31||	=31||	=31||	=31||	=31||	=31||	=31||	=31||
*k[f#]	*	*	*k[]	*	*	*k[]	*	*k[f#]	*	*
*M3/4	*	*	*M3/4	*	*	*M3/4	*	*M3/4	*	*
!	!	!	!LO:LB:g=original	!	!	!LO:LB:g=original	!	!LO:LB:g=original	!	!
!LO:LB:g=original	!	!	!LO:TX:t=P:problem=brak oznaczenia zmiany tonacji	!	!	!	!	!	!	!
!LO:TX:a:t=Lente	!	!	!LO:TX:a:t=Lente	!	!	!	!	!LO:TX:a:t=Lente	!	!
2E\	Be-	.	4B\	Be-	.	4e\	Be-	4g\	Be-	.
.	.	.	4e\	.	.	4g\	.	4b\	.	.
4BB/	-ne-	.	4d#X\	-ne-	.	4f#X\	-ne-	4a\	-ne-	.
=32	=32	=32	=32	=32	=32	=32	=32	=32	=32	=32
!	!	!	!	!	!	!LO:SIC:v:s=4f#	!	!	!	!
4BB/	-di-	.	4B\	-di-	.	4f\	-di-	4a\	-di-	.
4E/	-ctus	.	4B\	-ctus	.	4e\	-ctus	4g\	-ctus	.
8r	.	.	8r	.	.	8r	.	8r	.	.
8E\	qui	.	8e\	qui	.	8g\	qui	8b\	qui	.
=33	=33	=33	=33	=33	=33	=33	=33	=33	=33	=33
4E\	ve-	.	8e\L	ve-	.	8g\L	ve-	2.b\	ve-	.
.	.	.	8d#X\	.	.	8f#X\	.	.	.	.
4D#X\	.	.	8f#X\	.	.	8a\	.	.	.	.
.	.	.	8e\	.	.	8g\	.	.	.	.
4E\	.	.	8d#\	.	.	8f#\	.	.	.	.
.	.	.	8e\J	.	.	8g\J	.	.	.	.
=34	=34	=34	=34	=34	=34	=34	=34	=34	=34	=34
4B\	.	.	4e\	.	.	4g\	.	4b\	.	.
!	!	!	!	!	!	!LO:SIC:v:s=4f#	!	!	!	!
4BB/	nit	.	4d#X\	-nit	.	4f\	-nit	4b\	-nit	.
4r	.	.	4r	.	.	4r	.	4r	.	.
=35	=35	=35	=35	=35	=35	=35	=35	=35	=35	=35
4G\	Be-	.	4B\	Be-	.	4d\	Be-	4b\	Be-	.
4B\	.	.	4dn\	.	.	4g\	.	4g\	.	.
4d\	-ne-	.	4c\	-ne-	.	4f#X\	-ne-	4a\	-ne-	.
=36	=36	=36	=36	=36	=36	=36	=36	=36	=36	=36
8B\L	-di-	.	8d\L	-di-	.	8g\L	-di-	8g\L	-di-	.
!	!	!	!	!	!	!LO:SIC:v:s=8f#	!	!	!	!
8A\J	.	.	8c\J	.	.	8f\J	.	8a\J	.	.
4G\	-ctus	.	4B\	-ctus	.	4d\	-ctus	4b\	-ctus	.
8r	.	.	8r	.	.	8r	.	8r	.	.
8G\	qui	.	8B\	qui	.	8d\	qui	8g\	qui	.
=37	=37	=37	=37	=37	=37	=37	=37	=37	=37	=37
*	*	*	*	*	*	*k[f#]	*	*	*	*
!LO:LB:g=original	!	!	!LO:LB:g=original	!	!	!LO:TX:t=P:f#:problem=od tego momentu przy kluczu pojawia się właściwy znak przykluczowy	!	!LO:LB:g=original	!	!
8F#\L	ve-	.	8A\L	ve-	.	2.d\	ve-	8cc\L	ve-	.
8A\J	.	.	8c\J	.	.	.	.	8a\J	.	.
4c\	.	.	4A\	.	.	.	.	4f#/	.	.
8qqc/	.	.	.	.	.	.	.	.	.	.
8B\L	.	.	8G\L	.	.	.	.	8dd\L	.	.
16A\L	.	.	8B\J	.	.	.	.	8b\J	.	.
16G\JJ	.	.	.	.	.	.	.	.	.	.
=38	=38	=38	=38	=38	=38	=38	=38	=38	=38	=38
4d\	.	.	4B\	.	.	4g\	.	4g/	.	.
4D/	-nit.	.	4A\	-nit	.	4f#\	-nit	4f#/	-nit	.
8r	.	.	8r	.	.	8r	.	8r	.	.
8D\	qui	.	8A\	qui	.	8f#\	qui	8a\	qui	.
=39	=39	=39	=39	=39	=39	=39	=39	=39	=39	=39
8D\L	ve-	.	2c\	ve-	.	2d\	ve-	2a\	ve-	.
8F#\	.	.	.	.	.	.	.	.	.	.
8A\	.	.	.	.	.	.	.	.	.	.
8c\J	.	.	.	.	.	.	.	.	.	.
8A\	-nit	.	8c\	-nit	.	8d\	-nit	8f#/	-nit	.
8F#\	in	.	8A\	in	.	8d\	in	8a/	in	.
=40	=40	=40	=40	=40	=40	=40	=40	=40	=40	=40
4.G\	no-	.	4.B\	no-	.	4.d\	no-	4.dd\	no-	.
8A\	-mi-	.	8c\	-mi-	.	8f#\	-mi-	8cc\	-mi-	.
4B\	-ne	.	4d\	-ne	.	4g\	-ne	4b\	-ne	.
=41	=41	=41	=41	=41	=41	=41	=41	=41	=41	=41
8c\L	Do-	.	8e\L	Do-	.	4a\	Do-	8cc\L	Do-	.
16B\L	.	.	16d\L	.	.	.	.	16b\L	.	.
16c\JJ	.	.	16c\JJ	.	.	.	.	16a\JJ	.	.
4d\	.	.	4B\	.	.	4g\	.	4g\	.	.
4D/	-mi-	.	4A\	-mi-	.	4f#\	-mi-	4dd\	-mi-	.
=42	=42	=42	=42	=42	=42	=42	=42	=42	=42	=42
.	.	.	8qqA/	.	.	8qqf#/	.	.	.	.
2G\	-ni.	.	2B\	-ni	.	2g\	-ni	2dd\	-ni	.
8r	.	.	8r	.	.	8r	.	8r	.	.
8D\	qui	.	8A\	qui	.	8f#\	qui	8a\	qui	.
=43	=43	=43	=43	=43	=43	=43	=43	=43	=43	=43
!LO:LB:g=original	!	!	!LO:LB:g=original	!	!	!	!	!LO:LB:g=original	!	!
8D\L	ve-	.	2c\	ve-	.	2d\	ve-	2a\	ve-	.
8F#\	.	.	.	.	.	.	.	.	.	.
8A\	.	.	.	.	.	.	.	.	.	.
8c\J	.	.	.	.	.	.	.	.	.	.
8A\	-nit	.	8c\	-nit	.	8d\	-nit	8f#/	-nit	.
8F#\	in	.	8A\	in	.	8d\	in	8a/	in	.
=44	=44	=44	=44	=44	=44	=44	=44	=44	=44	=44
!	!	!	!	!	!	!LO:LB:g=original	!	!	!	!
4.G\	no-	.	4.B\	no-	.	4.d\	no-	4.dd\	no-	.
8A\	-mi-	.	8c\	-mi-	.	8f#\	-mi-	8cc\	-mi-	.
4B\	-ne	.	4d\	-ne	.	4g\	-ne	4b\	-ne	.
=45	=45	=45	=45	=45	=45	=45	=45	=45	=45	=45
8c\L	Do-	.	8e\L	Do-	.	4a\	Do-	8cc\L	Do-	.
16B\L	.	.	16d\L	.	.	.	.	16b\L	.	.
16c\JJ	.	.	16c\JJ	.	.	.	.	16a\JJ	.	.
4d\	.	.	4B\	.	.	4g\	.	4g\	.	.
4D/	-mi-	.	4A\	-mi-	.	4f#\	-mi-	4dd\	-mi-	.
=46	=46	=46	=46	=46	=46	=46	=46	=46	=46	=46
!LO:SIC:v:l:s=-ni	!	!	!	!	!	!	!	!	!	!
4G\	-ne	.	4B\	-ni	.	4g\	-ni	4dd\	-ni	.
4r	.	.	4r	.	.	4r	.	4r	.	.
4E\	qui	.	4B\	qui	.	4g\	qui	4ee\	qui	.
=47	=47	=47	=47	=47	=47	=47	=47	=47	=47	=47
8D#X\L	ve-	.	8B\L	ve-	.	8f#\L	ve-	8dd#X\L	ve-	.
8F#\J	.	.	8d#X\J	.	.	8a\J	.	8b\J	.	.
8BB/	-nit	.	8f#X\	-nit	.	8a\	-nit	8b\	-nit	.
8F#\	in	.	8f#\	in	.	8a\	in	8b\	in	.
8B\L	no-	.	8e\L	no-	.	8g\L	no-	4b\	no-	.
8A\J	.	.	8d#X\J	.	.	8f#\J	.	.	.	.
=48	=48	=48	=48	=48	=48	=48	=48	=48	=48	=48
!LO:LB:g=original	!	!	!	!	!	!	!	!LO:LB:g=original	!	!
4.G\	.	.	4.B\	.	.	4.e\	.	4.b\	.	.
8F#\	-mi-	.	8d\	-mi-	.	8f#\	-mi-	8a\	-mi-	.
4E\	-ne	.	4e\	-ne	.	4g\	-ne	4g\	-ne	.
=49	=49	=49	=49	=49	=49	=49	=49	=49	=49	=49
!	!	!	!LO:LB:g=original	!	!	!	!	!	!	!
8A\L	Do-	.	8c\L	Do-	.	8f#\L	Do-	8cc\L	Do-	.
8c\J	.	.	8f#X\J	.	.	8a\J	.	8a\J	.	.
4B\	.	.	4e\	.	.	4g\	.	4b\	.	.
4BB/	-mi-	.	4d#X\	-mi-	.	4f#\	-mi-	4b\	-mi-	.
=50	=50	=50	=50	=50	=50	=50	=50	=50	=50	=50
!	!	!	!	!	!	!LO:LB:g=original	!	!	!	!
4E\	-ni.	.	4e\	-ni	.	4g\	-ni	4b\	-ni.	.
!	!	!	!LO:SIC:v:s=4f#	!	!	!	!	!	!	!
4D#X\	Be-	.	4f\	be-	.	4a\	be-	4b\	Be-	.
4E\	-ne-	.	4e\	-ne-	.	4g\	-ne-	4b\	-ne-	.
=51	=51	=51	=51	=51	=51	=51	=51	=51	=51	=51
8E\L	-di-	.	2e\	-di-	.	2g\	-di-	2.b\	-di-	.
8G\J	.	.	.	.	.	.	.	.	.	.
4B\	.	.	.	.	.	.	.	.	.	.
4BB/	.	.	4d#X\	.	.	4f#\	.	.	.	.
=52	=52	=52	=52	=52	=52	=52	=52	=52	=52	=52
!	!	!	!LO:SIC:v:s=8qqd#/	!	!	!	!	!	!	!
.	.	.	8qqd/	.	.	.	.	.	.	.
4E\	-ctus	.	2e\	-ctus	.	4g\	-ctus	2b\	-ctus	.
4r	.	.	.	.	.	4r	.	.	.	.
!LO:TX:a:t=Osanna\nDa\nCapo	!	!	!LO:TX:a:t=Osanna Da Capo	!	!	!LO:TX:a:t=Osanna Da Capo	!	!LO:TX:a:t=Osanna Da\nCapo	!	!
4r	.	.	4r	.	.	4r	.	4r	.	.
==	==	==	==	==	==	==	==	==	==	==
*-	*-	*-	*-	*-	*-	*-	*-	*-	*-	*-
!!!system-decoration: [(s1,s2,s3,s4)]
!!!ENC: Kamil Watkowski
!!!END: 2021-08-06
